X:1
T:See the Shining Dewdrops
T:See the Shining Dewdrops
T:German Tune
T:Anonymous, before 1921
T:Public Domain Courtesy of the Cyber Hymnal™
C:German Tune
Z:Public Domain
Z:Courtesy of the Cyber Hymnal™
%%score ( 1 2 ) ( 3 4 )
L:1/8
M:6/8
K:D
V:1 treble 
V:2 treble 
V:3 bass 
V:4 bass 
V:1
 D2 D [DF]2 [DF] | [FA]3 [DF]3 | [EG]2 [EG] ([DF][CE])D | [CE]3- [CE]2 z | [CE]2 [DF] [CG]2 [DF] | %5
w: 1.~See the shin- ing|dew- drops,|On the flow- * ers|strewed, *|Prov- ing as they|
w: 2.~Hear the moun- tain|stream- let,|In its sol- * i-|tude, *|With its rip- ple|
w: 3.~In the leaf- y|tree- tops,|Where no fears * in-|trude, *|Mer- ry birds are|
w: 4.~Bring, my heart, thy|tri- bute,|Songs of grat- * i-|tude, *|All things join to|
 [DB]3 [DA]2 z ||1,2,3 [Dd]2 [FA] ([EG][DF])[CE] | D3- =D2 z :|4 [Dd]2 [FA] ([EG][DF])[CE] || %9
w: spark- le,|“God is ev- * er|good.” *||
w: say- ing,|“God is ev- * er|good.” *||
w: sing- ing,|“God is ev- * er|good.” *||
w: tell us,|~ ~ ~ * ~|~ *|“God is ev- * er|
 [B,D]3 [A,D]2 [A,D] | [B,E]3 [A,C]3 | [A,D]3- [A,D]2 z |] %12
w: |||
w: |||
w: |||
w: good, God is|ev- er|good.” *|
V:2
 D2 D x3 | x6 | x6 | x6 | x6 | x6 ||1,2,3 x6 | D3 =D3 :|4 x6 || x6 | x6 | x6 |] %12
V:3
 [D,F,]2 [D,F,] [D,A,]2 [D,A,] | [D,D]3 [D,A,]3 | [C,A,]2 [C,A,] [D,-A,][D,G,][D,F,] | %3
 [A,,A,]3- [A,,A,]2 z | [G,A,]2 [F,A,] [E,A,]2 [D,A,] | G,3 [F,A,]2 z ||1,2,3 %6
 [F,A,]2 [D,A,] [A,,A,]2 [A,,G,] | [D,F,]3{A,,} [D,F,]2{D,,} z :|4 %8
 [F,A,]2 [D,A,] [A,,A,]2 [A,,G,] || [D,F,]3 [F,,A,]2 [F,,A,] | [G,,G,]3 [A,,G,]3 | %11
 [D,F,]3- [D,F,]2 z |] %12
V:4
 x6 | x6 | x6 | x6 | x6 | G,3 x3 ||1,2,3 x6 | x6 :|4 x6 || x6 | x6 | x6 |] %12

